pages/Absolute/img/VTB.svg

<svg width="140" height="50" viewBox="0 0 140 50" fill="none" xmlns="http://www.w3.org/2000/svg">
<path fill-rule="evenodd" clip-rule="evenodd" d="M9.51186 0L7.13241 6.48956H40.1063L42.4857 0H9.51186ZM5.94195 9.73287L3.5625 16.221H36.5364L38.9158 9.73287H5.94195ZM2.37945 19.4657L0 25.9538H32.9739L35.3518 19.4657H2.37945Z" fill="#009FDF"/>
<mask id="mask0" mask-type="alpha" maskUnits="userSpaceOnUse" x="49" y="9" width="91" height="41">
<path d="M49.4712 49.6101H139.733V9.85742H49.4712V49.6101Z" fill="white"/>
</mask>
<g mask="url(#mask0)">
<path fill-rule="evenodd" clip-rule="evenodd" d="M70.1002 28.4266V28.5636C71.6071 29.1143 73.0466 30.0773 73.8008 30.6957C76.1309 32.6217 77.1595 35.1661 77.1595 38.4673C77.1595 43.9022 74.2806 47.8219 69.5514 49.0602C68.112 49.4725 66.6051 49.611 63.7937 49.611H49.4712V9.85742H62.1503C64.7548 9.85742 66.5361 9.99435 68.112 10.4066C72.7047 11.645 75.7201 14.8093 75.7201 19.8289C75.7201 22.5117 74.7604 24.7823 73.1845 26.2945C72.4993 26.9821 71.5397 27.8082 70.1002 28.4266ZM57.4211 32.6217V43.0761H62.9045C64.5479 43.0761 66.0563 42.9392 67.1539 41.907C68.2499 40.8748 68.7298 39.5688 68.7298 37.8489C68.7298 36.5428 68.3864 35.3045 67.7012 34.4107C66.5361 32.9662 65.0967 32.6217 62.6301 32.6217H57.4211ZM57.3522 25.7438H61.8069C63.1774 25.7438 63.8626 25.7438 64.5479 25.5376C66.3997 24.9869 67.5647 23.3378 67.5647 21.0673C67.5647 18.3859 66.3307 17.2153 64.5479 16.6661C63.7937 16.4599 63.041 16.3907 61.5325 16.3907H57.3522V25.7438ZM89.0844 49.611V16.5277H77.6393V9.85742H109.441L107.179 16.5277H97.0343V49.611H89.0844ZM111.907 49.611V9.85742H137.678L135.417 16.5277H119.79V25.3315H126.164C131.304 25.3315 133.977 26.5699 135.827 28.1513C137.267 29.3896 139.733 32.1402 139.733 37.5751C139.733 42.9392 137.198 45.8959 135.073 47.4096C132.607 49.128 130.002 49.611 124.724 49.611H111.907ZM119.79 42.9392H125.753C128.014 42.9392 129.384 42.3885 130.344 41.1502C130.824 40.5317 131.509 39.4303 131.509 37.3674C131.509 35.3045 130.824 33.86 129.453 32.8278C128.632 32.2094 127.534 31.8663 125.684 31.8663H119.79V42.9392Z" fill="#0A2973"/>
</g>
</svg>

<svg width="140" height="50" fill="none" xmlns="http://www.w3.org/2000/svg">
  <path fill-rule="evenodd" clip-rule="evenodd" d="M9.512 0l-2.38 6.49h32.974L42.486 0H9.512zm-3.57 9.733l-2.38 6.488h32.974l2.38-6.488H5.942zm-3.563 9.733L0 25.954h32.974l2.378-6.488H2.379z" fill="#009FDF"/>
  <mask id="a" maskUnits="userSpaceOnUse" x="49" y="9" width="91" height="41">
    <path d="M49.471 49.61h90.262V9.857H49.471V49.61z" fill="#fff"/>
  </mask>
  <g mask="url(#a)">
    <path fill-rule="evenodd" clip-rule="evenodd" d="M70.1 28.427v.137c1.507.55 2.947 1.513 3.7 2.132 2.33 1.926 3.36 4.47 3.36 7.771 0 5.435-2.88 9.355-7.609 10.593-1.439.412-2.946.551-5.757.551H49.47V9.857h12.68c2.604 0 4.385.137 5.961.55 4.593 1.238 7.608 4.402 7.608 9.422 0 2.683-.96 4.953-2.535 6.465-.686.688-1.645 1.514-3.085 2.133zm-12.679 4.195v10.454h5.483c1.644 0 3.152-.137 4.25-1.169 1.096-1.032 1.576-2.338 1.576-4.058 0-1.306-.344-2.544-1.029-3.438-1.165-1.445-2.604-1.79-5.07-1.79h-5.21zm-.069-6.878h4.455c1.37 0 2.056 0 2.74-.206 1.853-.551 3.018-2.2 3.018-4.47 0-2.682-1.234-3.853-3.017-4.402-.754-.206-1.507-.275-3.016-.275h-4.18v9.353zM89.084 49.61V16.528H77.64v-6.67h31.802l-2.262 6.67H97.034V49.61h-7.95zm22.823 0V9.857h25.771l-2.261 6.67H119.79v8.804h6.374c5.14 0 7.813 1.239 9.663 2.82 1.44 1.239 3.906 3.99 3.906 9.424 0 5.364-2.535 8.32-4.66 9.835-2.466 1.718-5.071 2.201-10.349 2.201h-12.817zm7.883-6.672h5.963c2.261 0 3.631-.55 4.591-1.789.48-.618 1.165-1.72 1.165-3.783 0-2.063-.685-3.507-2.056-4.54-.821-.618-1.919-.96-3.769-.96h-5.894v11.072z" fill="#0A2973"/>
  </g>
</svg>
